X: 32302
T: Pigeon On The Gate, The
R: reel
M: 4/4
K: Edorian
FA|BE E2 BEdE|BE E2 dBAF|D2FD ADF(D|D)EFA BAFA|
BE E2 BEdE|BE E2 B2 AF|D2 FA dfec|dBAF E2:|
FA|Beed efed|Bdef gfed|BAFA d2dB|AF3 DEFA|
Beed efed|Bdef g2fg|af ge fd ec|dBAF E2:|

